X:1
T:Erect your heads, eternal gates
T:Erect your heads, eternal gates (Joseph Stephenson)
C:Joseph Stephenson
Z:p40, Church Harmony
Z:Sacred to Devotion, 4th ed.
Z:London: [c1763-1771]
%%score [ 1 2 3 4 ]
L:1/8
M:2/2
K:G
V:1 treble nm="SOPRANO" snm="S."
V:2 treble nm="ALTO" snm="A."
V:3 treble-8 transpose=-12 nm="TENOR" snm="T."
V:4 bass nm="BASS" snm="B."
V:1
 B4 A4 | B4 G4 | G4 G4- | G4 F4 | G8 | (d6 c2) | (B3 c d4) | d4 (B3 A | G4) A4 | A8 | z8 | z8 | %12
w: E- rect|your heads,|e- ter-|* nal|gates;|Un- *|fold _ _|to en- *|* ter-|tain|||
w: E- rect|your heads,|ye gates,|_ un-|fold|In _|state _ _|to en- *|* ter-|tain|||
 z8 | d4 B2 c2 | d6 c2 | (B2 A2 G2 A2 | B2) c2 d4- | d6 d2 | B2 A2 G2 G2 | F6 F2 | G2 d2 (B3 c | %21
w: |The king of|glo- ry:|see, _ _ _|_ he comes|_ With|his ce- les- tial|train, with|his ce- les- *|
w: |The king of|glo- ry:|see, _ _ _|_ he comes|_ With|all his shi- ning|train, with|all his shi- *|
 B3 A G3 A | B3 c d2) d2 | G4 A4 | F6 G2 | G8 | z8 | z8 | z8 | z4 d4 | (B2 c2) d4 | (edcB A2) F2 | %32
w: |* * * tial,|his ce-|les- tial|train.||||The|Lord _ for|strength _ _ _ _ re-|
w: |* * * ning|train, his|shi- ning|train.||||The|Lord _ of|hosts _ _ _ _ re-|
 G4 z4 |: B4 A2 A2 | B2 G2 (G>A)(B>c) | d4 d4 | e6 e2 | d6 c2 | B8 :| %39
w: nown’d,|In bat- tle|migh- ty, o’er _ his _|foes E-|ter- nal|vic- tor|crown’d.|
w: nown’d,|Of glo- ry|he a- lone _ is _|king, Who|is with|glo- ry|crown’d.|
V:2
 D4 D4 | D4 G4 | D4 E4 | D8 | D8 | D8 | (D4 G4) | F4 G4- | G4 E4 | F8 | z8 | z8 | D4 B,2 C2 | %13
w: E- rect|your heads,|e- ter-|nal|gates;|Un-|fold _|to en-|* ter-|tain|||The king of|
w: E- rect|your heads,|ye gates,|un-|fold|In|state _|to en-|* ter-|tain|||The king of|
 D6 C2 | (B,2 A,2 G,2 A,2 | B,2) C2 D4 | G2 G2 F4- | F6 z2 | z8 | z8 | z8 | z8 | z8 | z8 | z8 | %25
w: glo- ry:|see, _ _ _|_ he comes,|see, he comes.|_||||||||
w: glo- ry:|see, _ _ _|_ he comes,|see, he comes.|_||||||||
 z8 | D4 G2 F2 | G6 A2 | (D3 E F2) D2 | G4 z4 | z8 | z8 | z8 |: G4 F2 F2 | D2 D2 D2 G2 | F4 F4 | %36
w: |Who is the|king of|glo- * * ry,|who?||||In bat- tle|migh- ty, o’er his|foes E-|
w: |Who is this|king of|glo- * * ry,|who?||||Of glo- ry|he a- lone is|king, Who|
 G6 A2 | TF6 F2 | G8 :| %39
w: ter- nal|vic- tor|crown’d.|
w: is with|glo- ry|crown’d.|
V:3
 G4 d4 | B4 e4 | d4 c4 | (B4 TA4) | G8 | (B6 c2) | (d>edc B4) | A4 (B>cBc | d4) ^c4 | d8 | %10
w: E- rect|your heads,|e- ter-|nal _|gates;|Un- *|fold _ _ _ _|to en- * * *|* ter-|tain|
w: E- rect|your heads,|ye gates,|un- *|fold|In _|state _ _ _ _|to en- * * *|* ter-|tain|
 d4 B2 c2 | d6 c2 | (B2 A2 G2 A2 | B2) c2 d4- | d2 (de) (=f2 e2 | d2 c2 B2) A2 | B2 G2 A4- | %17
w: The king of|glo- ry:|see, _ _ _|_ he comes,|_ of _ glo- *|* * * ry,|see, he comes,|
w: The king of|glo- ry:|see, _ _ _|_ he comes,|_ of _ glo- *|* * * ry,|see, he comes,|
 A6 A2 | B2 c2 (d3 e | d3 c B3 A | G3 A B3 c | d8- | Td6) d2 | B4 c4 | (B2 AB A2) G2 | G8 | z8 | %27
w: _ With|his ce- les- *||||* tial,|his ce-|les- * * * tial|train.||
w: _ With|all his shi- *||||* ning|train, his|shi- * * * ning|train.||
 z8 | z8 | z8 | z8 | z8 | z8 |: d4 d2 d2 | B2 B2 d2 B2 | A4 D4 | (G>AGA B2) c2 | TA6 A2 | G8 :| %39
w: ||||||In bat- tle|migh- ty, o’er his|foes E-|ter- * * * * nal|vic- tor|crown’d.|
w: ||||||Of glo- ry|he a- lone is|king, Who|is _ _ _ _ with|glo- ry|crown’d.|
V:4
 G,4 F,4 | G,4 E,4 | G,4 C,4 | D,8 | G,,8 | (G,6 A,2) | (B,>CB,A, G,4) | D,4 (G,>A,G,A, | %8
w: E- rect|your heads,|e- ter-|nal|gates;|Un- *|fold _ _ _ _|to en- * * *|
w: E- rect|your heads,|ye gates,|un-|fold|In _|state _ _ _ _|to en- * * *|
 B,4) A,4 | D,8 | %10
w: * ter-|tain|
w: * ter-|tain|
"^Notes:The alto part is notated in the alto clef in the source: the original time signature is retorted time.Fragments of verses 7-8 of the text are given in the source: these verses and verses 9-10 have been editoriallyunderlaid in full.The F§ in the tenor part in the second half of bar 15 is marked in the source with a b sign." z8 | %11
w: |
w: |
 D,4 B,,2 C,2 | D,6 C,2 | (B,,2 A,,2 G,,2 A,,2 | B,,2) C,2 D,4- | D,2 D,2 G,2 F,2 | E,2 E,2 D,4- | %17
w: The king of|glo- ry:|see, _ _ _|_ he comes,|_ of glo- ry,|see, he comes,|
w: The king of|glo- ry:|see, _ _ _|_ he comes,|_ of glo- ry,|see, he comes,|
 D,6 D,2 | G,,2 A,,2 B,,2 C,2 | D,6 D,2 | E,2 F,2 (G,3 A, | G,3 F, E,3 F, | G,3 A, G,2) D,2 | %23
w: _ With|his ce- les- tial|train, with|his ce- les- *||* * * tial,|
w: _ With|all his shi- ning|train, with|all his shi- *||* * * ning|
 E,4 C,4 | D,6 D,2 | G,,8 | z8 | z8 | z8 | z4 G,4 | B,2 A,2 (G,F,E,D, | C,6) D,2 | G,4 z4 |: %33
w: his ce-|les- tial|train.||||The|Lord for strength _ _ _|_ re-|nown’d,|
w: train, his|shi- ning|train.||||The|Lord of hosts _ _ _|_ re-|nown’d,|
 G,4 D,2 D,2 | G,2 G,2 B,2 G,2 | D,4 D,4 | (C,4 B,,2) A,,2 | D,6 D,2 | G,,8 :| %39
w: In bat- tle|migh- ty, o’er his|foes E-|ter- * nal|vic- tor|crown’d.|
w: Of glo- ry|he a- lone is|king, Who|is _ with|glo- ry|crown’d.|

